Ontario/build/img/social/linkedin.svg

<svg xmlns="http://www.w3.org/2000/svg" width="16" height="15"><style/><g id="Header"><g id="social_buttons"><path id="linkedin" d="M1.02 14.98h2.99V4.99H1.02v9.99zM12.69 4.65c-1.46 0-2.76.53-3.68 1.7V4.96H6v10.02h3.01V9.56c0-1.14 1.05-2.26 2.36-2.26 1.32 0 1.64 1.12 1.64 2.24v5.44h3V9.31c0-3.93-1.87-4.66-3.32-4.66zM2.47-.05C1.38-.05.51.74.51 1.71s.87 1.76 1.96 1.76c1.08 0 1.95-.79 1.95-1.76S3.55-.05 2.47-.05z" fill="#fff"/></g></g></svg>

<svg xmlns="http://www.w3.org/2000/svg" viewBox="0 0 16 15" width="16" height="15">
	<style>
		tspan { white-space:pre }
		.shp0 { fill: #ffffff } 
	</style>
	<g id="Header">
		<g id="social_buttons">
			<path id="linkedin" class="shp0" d="M1.02 14.98L4.01 14.98L4.01 4.99L1.02 4.99L1.02 14.98ZM12.69 4.65C11.23 4.65 9.93 5.18 9.01 6.35L9.01 4.96L6 4.96L6 14.98L9.01 14.98L9.01 9.56C9.01 8.42 10.06 7.3 11.37 7.3C12.69 7.3 13.01 8.42 13.01 9.54L13.01 14.98L16.01 14.98L16.01 9.31C16.01 5.38 14.14 4.65 12.69 4.65ZM2.47 -0.05C1.38 -0.05 0.51 0.74 0.51 1.71C0.51 2.68 1.38 3.47 2.47 3.47C3.55 3.47 4.42 2.68 4.42 1.71C4.42 0.74 3.55 -0.05 2.47 -0.05Z" />
		</g>
	</g>
</svg>
